logos/mfishtools.svg

<?xml version="1.0" encoding="UTF-8"?>
<!DOCTYPE svg PUBLIC "-//W3C//DTD SVG 1.1//EN" "http://www.w3.org/Graphics/SVG/1.1/DTD/svg11.dtd">
<svg xmlns="http://www.w3.org/2000/svg" version="1.1" width="276px" height="112px" style="shape-rendering:geometricPrecision; text-rendering:geometricPrecision; image-rendering:optimizeQuality; fill-rule:evenodd; clip-rule:evenodd" xmlns:xlink="http://www.w3.org/1999/xlink">
<g><path style="opacity:1" fill="#0e1116" d="M -0.5,-0.5 C 91.5,-0.5 183.5,-0.5 275.5,-0.5C 275.5,36.1667 275.5,72.8333 275.5,109.5C 189.827,108.836 104.493,109.503 19.5,111.5C 12.8333,111.5 6.16667,111.5 -0.5,111.5C -0.5,74.1667 -0.5,36.8333 -0.5,-0.5 Z"/></g>
<g><path style="opacity:1" fill="#dce2e7" d="M 75.5,48.5 C 75.5,49.8333 75.5,51.1667 75.5,52.5C 74.209,52.2627 73.209,52.596 72.5,53.5C 71.5655,54.5676 71.2322,55.901 71.5,57.5C 72.5676,58.4345 73.901,58.7678 75.5,58.5C 75.5,59.8333 75.5,61.1667 75.5,62.5C 73.901,62.2322 72.5676,62.5655 71.5,63.5C 71.5,70.1667 71.5,76.8333 71.5,83.5C 69.1667,83.5 66.8333,83.5 64.5,83.5C 64.5,76.8333 64.5,70.1667 64.5,63.5C 63.791,62.596 62.791,62.2627 61.5,62.5C 61.5,61.1667 61.5,59.8333 61.5,58.5C 62.791,58.7373 63.791,58.404 64.5,57.5C 64.1665,49.8442 67.8332,46.8442 75.5,48.5 Z"/></g>
<g><path style="opacity:1" fill="#d7dde2" d="M 81.5,47.5 C 86.3276,47.3852 87.6609,49.5519 85.5,54C 79.3389,54.878 78.0055,52.7113 81.5,47.5 Z"/></g>
<g><path style="opacity:1" fill="#8f9499" d="M 75.5,48.5 C 76.4511,49.9187 76.7845,51.5853 76.5,53.5C 75.1667,53.5 73.8333,53.5 72.5,53.5C 73.209,52.596 74.209,52.2627 75.5,52.5C 75.5,51.1667 75.5,49.8333 75.5,48.5 Z"/></g>
<g><path style="opacity:1" fill="#85898f" d="M 122.5,49.5 C 120.5,49.5 118.5,49.5 116.5,49.5C 116.5,60.8333 116.5,72.1667 116.5,83.5C 115.505,72.012 115.172,60.3453 115.5,48.5C 118.059,48.1984 120.393,48.5318 122.5,49.5 Z"/></g>
<g><path style="opacity:1" fill="#e0e5eb" d="M 122.5,49.5 C 122.335,53.1817 122.501,56.8484 123,60.5C 128.281,56.301 133.281,56.6343 138,61.5C 139.391,68.7458 139.891,76.0791 139.5,83.5C 137.167,83.5 134.833,83.5 132.5,83.5C 132.666,77.4908 132.499,71.4908 132,65.5C 129.847,63.5561 127.347,63.0561 124.5,64C 123.809,65.0674 123.309,66.2341 123,67.5C 122.501,72.8229 122.334,78.1563 122.5,83.5C 120.5,83.5 118.5,83.5 116.5,83.5C 116.5,72.1667 116.5,60.8333 116.5,49.5C 118.5,49.5 120.5,49.5 122.5,49.5 Z"/></g>
<g><path style="opacity:1" fill="#85898f" d="M 221.5,49.5 C 219.5,49.5 217.5,49.5 215.5,49.5C 215.5,60.8333 215.5,72.1667 215.5,83.5C 214.505,72.012 214.172,60.3453 214.5,48.5C 217.059,48.1984 219.393,48.5318 221.5,49.5 Z"/></g>
<g><path style="opacity:1" fill="#e6ecf1" d="M 221.5,49.5 C 221.5,60.8333 221.5,72.1667 221.5,83.5C 219.5,83.5 217.5,83.5 215.5,83.5C 215.5,72.1667 215.5,60.8333 215.5,49.5C 217.5,49.5 219.5,49.5 221.5,49.5 Z"/></g>
<g><path style="opacity:1" fill="#d7dde2" d="M 145.5,51.5 C 147.833,51.5 150.167,51.5 152.5,51.5C 152.5,53.5 152.5,55.5 152.5,57.5C 153.833,57.5 155.167,57.5 156.5,57.5C 156.5,59.5 156.5,61.5 156.5,63.5C 155.167,63.5 153.833,63.5 152.5,63.5C 152.5,68.5 152.5,73.5 152.5,78.5C 153.833,78.5 155.167,78.5 156.5,78.5C 156.5,80.1667 156.5,81.8333 156.5,83.5C 152.397,84.2309 148.897,83.2309 146,80.5C 145.501,74.8431 145.334,69.1764 145.5,63.5C 144.167,63.5 142.833,63.5 141.5,63.5C 141.5,61.5 141.5,59.5 141.5,57.5C 142.833,57.5 144.167,57.5 145.5,57.5C 145.5,55.5 145.5,53.5 145.5,51.5 Z"/></g>
<g><path style="opacity:1" fill="#dbe1e6" d="M 22.5,83.5 C 22.5,75.1667 22.5,66.8333 22.5,58.5C 24.8211,58.2289 26.8211,58.8955 28.5,60.5C 29.1067,60.3764 29.44,60.0431 29.5,59.5C 32.1769,57.568 35.1769,57.068 38.5,58C 40.3333,58.5 41.5,59.6667 42,61.5C 45.8543,57.3294 50.3543,56.4961 55.5,59C 56.7014,59.9025 57.5348,61.0692 58,62.5C 58.4996,69.4921 58.6663,76.4921 58.5,83.5C 56.1667,83.5 53.8333,83.5 51.5,83.5C 51.6662,77.1579 51.4995,70.8246 51,64.5C 48.4082,63.0183 46.0749,63.3517 44,65.5C 43.5005,71.4908 43.3338,77.4908 43.5,83.5C 41.1667,83.5 38.8333,83.5 36.5,83.5C 36.6662,77.1579 36.4995,70.8246 36,64.5C 33.4082,63.0183 31.0749,63.3517 29,65.5C 28.5005,71.4908 28.3338,77.4908 28.5,83.5C 26.5,83.5 24.5,83.5 22.5,83.5 Z"/></g>
<g><path style="opacity:1" fill="#dbe1e6" d="M 95.5,57.5 C 101.039,56.6384 105.872,57.9718 110,61.5C 112.468,64.2517 111.801,65.5851 108,65.5C 105.396,64.7221 102.896,63.7221 100.5,62.5C 97.6038,63.0237 96.9372,64.5237 98.5,67C 101.784,68.1245 105.117,69.1245 108.5,70C 112.957,75.1348 112.29,79.4681 106.5,83C 102.5,83.6667 98.5,83.6667 94.5,83C 91.6923,81.2067 90.0256,78.7067 89.5,75.5C 93.597,75.386 97.2637,76.386 100.5,78.5C 103.512,78.8213 104.845,77.488 104.5,74.5C 99.3854,74.3016 95.052,72.4683 91.5,69C 89.3208,63.8242 90.6542,59.9908 95.5,57.5 Z"/></g>
<g><path style="opacity:1" fill="#dde3e8" d="M 166.5,57.5 C 181.337,57.1372 186.503,64.1372 182,78.5C 177.509,83.2591 172.009,84.7591 165.5,83C 158.494,78.0961 156.661,71.5961 160,63.5C 161.914,61.1435 164.081,59.1435 166.5,57.5 Z"/></g>
<g><path style="opacity:1" fill="#dde3e8" d="M 193.5,57.5 C 208.337,57.1372 213.503,64.1372 209,78.5C 204.509,83.2591 199.009,84.7591 192.5,83C 185.494,78.0961 183.661,71.5961 187,63.5C 188.914,61.1435 191.081,59.1435 193.5,57.5 Z"/></g>
<g><path style="opacity:1" fill="#dbe1e6" d="M 230.5,57.5 C 236.039,56.6384 240.872,57.9718 245,61.5C 247.468,64.2517 246.801,65.5851 243,65.5C 240.396,64.7221 237.896,63.7221 235.5,62.5C 232.604,63.0237 231.937,64.5237 233.5,67C 236.784,68.1245 240.117,69.1245 243.5,70C 247.957,75.1348 247.29,79.4681 241.5,83C 237.5,83.6667 233.5,83.6667 229.5,83C 226.692,81.2067 225.026,78.7067 224.5,75.5C 228.597,75.386 232.264,76.386 235.5,78.5C 238.512,78.8213 239.845,77.488 239.5,74.5C 234.385,74.3016 230.052,72.4683 226.5,69C 224.321,63.8242 225.654,59.9908 230.5,57.5 Z"/></g>
<g><path style="opacity:1" fill="#a3a8ad" d="M 29.5,59.5 C 29.44,60.0431 29.1067,60.3764 28.5,60.5C 26.8211,58.8955 24.8211,58.2289 22.5,58.5C 22.5,66.8333 22.5,75.1667 22.5,83.5C 21.507,75.0161 21.1736,66.3494 21.5,57.5C 24.5331,57.1315 27.1998,57.7982 29.5,59.5 Z"/></g>
<g><path style="opacity:1" fill="#80858a" d="M 64.5,57.5 C 63.791,58.404 62.791,58.7373 61.5,58.5C 61.5,59.8333 61.5,61.1667 61.5,62.5C 62.791,62.2627 63.791,62.596 64.5,63.5C 63.1667,63.5 61.8333,63.5 60.5,63.5C 60.5,61.5 60.5,59.5 60.5,57.5C 61.8333,57.5 63.1667,57.5 64.5,57.5 Z"/></g>
<g><path style="opacity:1" fill="#767a80" d="M 71.5,57.5 C 73.1667,57.5 74.8333,57.5 76.5,57.5C 76.5,59.5 76.5,61.5 76.5,63.5C 74.8333,63.5 73.1667,63.5 71.5,63.5C 72.5676,62.5655 73.901,62.2322 75.5,62.5C 75.5,61.1667 75.5,59.8333 75.5,58.5C 73.901,58.7678 72.5676,58.4345 71.5,57.5 Z"/></g>
<g><path style="opacity:1" fill="#888c91" d="M 86.5,58.5 C 84.5,58.5 82.5,58.5 80.5,58.5C 80.5,66.8333 80.5,75.1667 80.5,83.5C 79.507,75.0161 79.1736,66.3494 79.5,57.5C 82.0593,57.1984 84.3926,57.5318 86.5,58.5 Z"/></g>
<g><path style="opacity:1" fill="#e5ebf0" d="M 86.5,58.5 C 86.5,66.8333 86.5,75.1667 86.5,83.5C 84.5,83.5 82.5,83.5 80.5,83.5C 80.5,75.1667 80.5,66.8333 80.5,58.5C 82.5,58.5 84.5,58.5 86.5,58.5 Z"/></g>
<g><path style="opacity:1" fill="#16181d" d="M 169.5,62.5 C 174.597,62.6725 176.93,65.3392 176.5,70.5C 176.337,77.876 173.171,79.876 167,76.5C 164.418,71.1198 165.251,66.4531 169.5,62.5 Z"/></g>
<g><path style="opacity:1" fill="#16181d" d="M 196.5,62.5 C 201.597,62.6725 203.93,65.3392 203.5,70.5C 203.337,77.876 200.171,79.876 194,76.5C 191.418,71.1198 192.251,66.4531 196.5,62.5 Z"/></g>
<g><path style="opacity:1" fill="#21262b" d="M 275.5,109.5 C 275.5,110.167 275.5,110.833 275.5,111.5C 190.167,111.5 104.833,111.5 19.5,111.5C 104.493,109.503 189.827,108.836 275.5,109.5 Z"/></g>
</svg>

<svg xmlns="http://www.w3.org/2000/svg" width="276" height="112" style="shape-rendering:geometricPrecision;text-rendering:geometricPrecision;image-rendering:optimizeQuality;fill-rule:evenodd;clip-rule:evenodd"><path style="opacity:1" fill="#0e1116" d="M-.5-.5h276v110a8194.308 8194.308 0 0 0-256 2h-20V-.5z"/><path style="opacity:1" fill="#dce2e7" d="M75.5 48.5v4c-1.291-.237-2.291.096-3 1-.934 1.068-1.268 2.401-1 4 1.068.934 2.401 1.268 4 1v4c-1.599-.268-2.932.066-4 1v20h-7v-20c-.709-.904-1.709-1.237-3-1v-4c1.291.237 2.291-.096 3-1-.334-7.656 3.333-10.656 11-9z"/><path style="opacity:1" fill="#d7dde2" d="M81.5 47.5c4.828-.115 6.16 2.052 4 6.5-6.161.878-7.495-1.289-4-6.5z"/><path style="opacity:1" fill="#8f9499" d="M75.5 48.5c.951 1.419 1.284 3.085 1 5h-4c.709-.904 1.709-1.237 3-1v-4z"/><path style="opacity:1" fill="#85898f" d="M122.5 49.5h-6v34c-.995-11.488-1.328-23.155-1-35 2.559-.302 4.893.032 7 1z"/><path style="opacity:1" fill="#e0e5eb" d="M122.5 49.5a60.93 60.93 0 0 0 .5 11c5.281-4.199 10.281-3.866 15 1a90.896 90.896 0 0 1 1.5 22h-7c.166-6.01-.001-12.01-.5-18-2.153-1.944-4.653-2.444-7.5-1.5a11.339 11.339 0 0 0-1.5 3.5 128.508 128.508 0 0 0-.5 16h-6v-34h6z"/><path style="opacity:1" fill="#85898f" d="M221.5 49.5h-6v34c-.995-11.488-1.328-23.155-1-35 2.559-.302 4.893.032 7 1z"/><path style="opacity:1" fill="#e6ecf1" d="M221.5 49.5v34h-6v-34h6z"/><path style="opacity:1" fill="#d7dde2" d="M145.5 51.5h7v6h4v6h-4v15h4v5c-4.103.73-7.603-.27-10.5-3a145.05 145.05 0 0 1-.5-17h-4v-6h4v-6z"/><path style="opacity:1" fill="#dbe1e6" d="M22.5 83.5v-25c2.321-.271 4.321.395 6 2 .607-.124.94-.457 1-1 2.677-1.932 5.677-2.432 9-1.5 1.833.5 3 1.667 3.5 3.5 3.854-4.17 8.354-5.004 13.5-2.5a6.975 6.975 0 0 1 2.5 3.5c.5 6.992.666 13.992.5 21h-7c.166-6.342 0-12.675-.5-19-2.592-1.482-4.925-1.148-7 1-.5 5.99-.666 11.99-.5 18h-7c.166-6.342 0-12.675-.5-19-2.592-1.482-4.925-1.148-7 1-.5 5.99-.666 11.99-.5 18h-6zM95.5 57.5c5.539-.862 10.372.472 14.5 4 2.468 2.752 1.801 4.085-2 4a44.508 44.508 0 0 1-7.5-3c-2.896.524-3.563 2.024-2 4.5a136.157 136.157 0 0 0 10 3c4.457 5.135 3.79 9.468-2 13-4 .667-8 .667-12 0-2.808-1.793-4.474-4.293-5-7.5 4.097-.114 7.764.886 11 3 3.012.321 4.345-1.012 4-4-5.115-.198-9.448-2.032-13-5.5-2.18-5.176-.846-9.01 4-11.5z"/><path style="opacity:1" fill="#dde3e8" d="M166.5 57.5c14.837-.363 20.003 6.637 15.5 21-4.491 4.76-9.991 6.26-16.5 4.5-7.006-4.904-8.839-11.404-5.5-19.5 1.914-2.356 4.081-4.356 6.5-6zM193.5 57.5c14.837-.363 20.003 6.637 15.5 21-4.491 4.76-9.991 6.26-16.5 4.5-7.006-4.904-8.839-11.404-5.5-19.5 1.914-2.356 4.081-4.356 6.5-6z"/><path style="opacity:1" fill="#dbe1e6" d="M230.5 57.5c5.539-.862 10.372.472 14.5 4 2.468 2.752 1.801 4.085-2 4a44.508 44.508 0 0 1-7.5-3c-2.896.524-3.563 2.024-2 4.5a136.157 136.157 0 0 0 10 3c4.457 5.135 3.79 9.468-2 13-4 .667-8 .667-12 0-2.808-1.793-4.474-4.293-5-7.5 4.097-.114 7.764.886 11 3 3.012.321 4.345-1.012 4-4-5.115-.198-9.448-2.032-13-5.5-2.179-5.176-.846-9.01 4-11.5z"/><path style="opacity:1" fill="#a3a8ad" d="M29.5 59.5c-.06.543-.393.876-1 1-1.679-1.605-3.679-2.271-6-2v25c-.993-8.484-1.326-17.15-1-26 3.033-.368 5.7.298 8 2z"/><path style="opacity:1" fill="#80858a" d="M64.5 57.5c-.709.904-1.709 1.237-3 1v4c1.291-.237 2.291.096 3 1h-4v-6h4z"/><path style="opacity:1" fill="#767a80" d="M71.5 57.5h5v6h-5c1.068-.934 2.401-1.268 4-1v-4c-1.599.268-2.932-.066-4-1z"/><path style="opacity:1" fill="#888c91" d="M86.5 58.5h-6v25c-.993-8.484-1.326-17.15-1-26 2.56-.302 4.893.032 7 1z"/><path style="opacity:1" fill="#e5ebf0" d="M86.5 58.5v25h-6v-25h6z"/><path style="opacity:1" fill="#16181d" d="M169.5 62.5c5.097.172 7.43 2.84 7 8-.163 7.376-3.329 9.376-9.5 6-2.582-5.38-1.749-10.047 2.5-14zM196.5 62.5c5.097.172 7.43 2.84 7 8-.163 7.376-3.329 9.376-9.5 6-2.582-5.38-1.749-10.047 2.5-14z"/><path style="opacity:1" fill="#21262b" d="M275.5 109.5v2h-256a8194.308 8194.308 0 0 1 256-2z"/></svg>
